dist/images/ico-close.svg

<svg xmlns="http://www.w3.org/2000/svg" xmlns:xlink="http://www.w3.org/1999/xlink" preserveAspectRatio="none" width="120" height="100" viewBox="0 0 120 100"><defs><path d="M107 6.95l-2.6-2.6-43.5 43.6-43.55-43.6-2.6 2.6L58.1 50.3 14.75 93.65l2.6 2.6 43.55-43.5 43.5 43.5 2.6-2.6L63.65 50.3 107 6.95z" id="a"/></defs><use xlink:href="#a"/></svg>

<svg xmlns="http://www.w3.org/2000/svg" version="1.1" xmlns:xlink="http://www.w3.org/1999/xlink" preserveAspectRatio="none" x="0px" y="0px" width="120px" height="100px" viewBox="0 0 120 100">
<defs>
<g id="Layer0_0_FILL">
<path fill="" stroke="none" d="
M 107 6.95
L 104.4 4.35 60.9 47.95 17.35 4.35 14.75 6.95 58.1 50.3 14.75 93.65 17.35 96.25 60.9 52.75 104.4 96.25 107 93.65 63.65 50.3 107 6.95 Z"/>
</g>
</defs>

<g transform="matrix( 1, 0, 0, 1, 0,0) ">
<use xlink:href="#Layer0_0_FILL"/>
</g>
</svg>
